X:1
T:Sweet Rosy O'Grady
M:3/4
L:1/8
K:Bb
 dFB dc F| AcB BA G| F2 z dd c| cdd cc d| dcB G A2| z dd FB d| cFA cB B|\
 AG F2 z d| dcc dd c| cdd c=B c| e3 z d6| c2 d2 c2| B6| F6| B6| c2 B2 A2|\
 B6-| B4 z2| B6| B2 c2 d2| d6| G6| d6| c2 B2 G2| c6-| c4 z2| d6| c2 d2 c2|\
 B6| F6| B6| c2 B2 c2| d6-| d4 z2| B2 A2 B2| c2 B2 G2| F6| d4 d2| c2 =B2 c2|\
 G2 A2 F2| B6-| B4 z2|

